X: 1
T: the Walls of Limerick
B: roche2.292
F: 163walls
S: http://norbeck.nu/abc/i/hnr2.abc
L: 1/8
M: 4/4
R: hornpipe
K: Edor
dc |\
BEEF GBAG | (3FED AD BDAD |\
GFEF GABc | dcdf e2 :|
ef |\
gfef gbag | fddc dfaf |\
gfef gbaf | gfed Be |]
ef |\
gfef gbag | fddc dfaf |\
bgaf gfed | Bcdf e2 |]
